images/global/icons/social-media/icon-twitter.svg

<?xml version="1.0" encoding="UTF-8" standalone="no"?>
<svg width="44px" height="44px" viewBox="0 0 44 44" version="1.1" xmlns="http://www.w3.org/2000/svg" xmlns:xlink="http://www.w3.org/1999/xlink">
    <!-- Generator: Sketch 3.8.1 (29687) - http://www.bohemiancoding.com/sketch -->
    <title>twitter</title>
    <desc>Created with Sketch.</desc>
    <defs>
        <circle id="path-1" cx="22" cy="22" r="22"></circle>
        <mask id="mask-2" maskContentUnits="userSpaceOnUse" maskUnits="objectBoundingBox" x="0" y="0" width="44" height="44" fill="white">
            <use xlink:href="#path-1"></use>
        </mask>
    </defs>
    <g id="Social-Icons" stroke="none" stroke-width="1" fill="none" fill-rule="evenodd">
        <g transform="translate(-120.000000, -60.000000)" id="twitter">
            <g transform="translate(120.000000, 60.000000)">
                <rect id="Rectangle" x="0" y="0" width="44" height="44"></rect>
                <use id="Oval" stroke="#091F2F" mask="url(#mask-2)" stroke-width="4" xlink:href="#path-1"></use>
                <path d="M30.526149,16.8457316 C31.4160944,16.2841254 32.0989611,15.3936155 32.41944,14.3328037 C31.5861948,14.8541095 30.6654341,15.2311137 29.6830428,15.4352159 C28.899102,14.5512061 27.7786582,14 26.5386512,14 C24.1597112,14 22.231907,16.0345226 22.231907,18.5435505 C22.231907,18.8997544 22.2676528,19.2468583 22.3416094,19.578362 C18.762106,19.3885599 15.5881317,17.5815398 13.4618771,14.8307092 C13.0908611,15.5041167 12.8788519,16.2841254 12.8788519,17.1161346 C12.8788519,18.6917521 13.6393731,20.0827676 14.7955626,20.8991767 C14.0892763,20.8757764 13.4248987,20.6690741 12.8431062,20.3310703 L12.8431062,20.386971 C12.8431062,22.5891954 14.3271703,24.4261158 16.3005811,24.8421205 C15.9381933,24.9487217 15.558549,25.0020222 15.1641134,25.0020222 C14.8867758,25.0020222 14.6156013,24.9747219 14.3542877,24.9214213 C14.9015672,26.7258414 16.4928685,28.041456 18.3787639,28.0765564 C16.9033281,29.29597 15.0457827,30.021378 13.0279979,30.021378 C12.6804015,30.021378 12.3365029,30.0018778 12,29.9589773 C13.9068498,31.2472916 16.1711569,32 18.6043317,32 C26.5300229,32 30.8614193,25.0761231 30.8614193,19.0713563 C30.8614193,18.8737542 30.858954,18.677452 30.8503258,18.4837498 C31.6921993,17.8428427 32.4243705,17.0420338 33,16.1307237 C32.2271527,16.4921277 31.3963726,16.7365304 30.526149,16.8457316 Z" id="Shape" fill="#091F2F"></path>
            </g>
        </g>
    </g>
</svg>

<svg width="44" height="44" viewBox="0 0 44 44" xmlns="http://www.w3.org/2000/svg" xmlns:xlink="http://www.w3.org/1999/xlink"><title>twitter</title><defs><circle id="a" cx="22" cy="22" r="22"/><mask id="b" x="0" y="0" width="44" height="44" fill="#fff"><use xlink:href="#a"/></mask></defs><g fill="none" fill-rule="evenodd"><path d="M0 0h44v44H0z"/><use stroke="#091F2F" mask="url(#b)" stroke-width="4" xlink:href="#a"/><path d="M30.526 16.846c.89-.562 1.573-1.452 1.893-2.513-.834.52-1.755.898-2.737 1.102C28.9 14.55 27.78 14 26.54 14c-2.38 0-4.308 2.035-4.308 4.544 0 .356.036.703.11 1.034-3.58-.19-6.754-1.996-8.88-4.747-.37.674-.583 1.454-.583 2.286 0 1.576.76 2.967 1.916 3.783-.707-.024-1.37-.23-1.953-.57v.057c0 2.202 1.484 4.04 3.458 4.455-.362.107-.74.16-1.136.16-.277 0-.548-.027-.81-.08.548 1.804 2.14 3.12 4.025 3.155-1.477 1.22-3.334 1.944-5.352 1.944-.348 0-.69-.018-1.028-.06 1.907 1.287 4.17 2.04 6.604 2.04 7.926 0 12.257-6.924 12.257-12.93 0-.196 0-.393-.01-.586.842-.64 1.574-1.442 2.15-2.353-.773.362-1.604.607-2.474.716z" fill="#091F2F"/></g></svg>
